X:1
T:James Gibb editions
T:Psalm 98 (Becker) - Schütz
%%score [ ( 1 2 ) ( 3 4 ) ]
L:1/8
Q:1/4=98
M:2/2
K:F
V:1 treble nm="Soprano Alto" snm="S. A."
V:2 treble 
V:3 bass nm="Tenor Bass" snm="T. B."
V:4 bass 
V:1
"^Psalm 98, SWV 196""^Heinrich Schütz\n(1585-1672)""^Cornelius Becker\n(1561-1604)" G2 GG D2 d2 | %1
w: ~Sin- get dem Herrn ein|
 c2 B2 A4 | B2 AG c2 d2 | (_ede)c B4 |[M:2/2] F2 FF G2 c2 | B2 B2 A4 | d2 Bc d2 c2 | B2 A2 G8 |] %8
w: neu- es Lied,|denn durch ihn groß Wun-|der * * ge- schieht,|sein rech- te Hand den|Sieg be- hält,|sein'm heil- gen Arm es|nie- mals fehlt.|
V:2
 D2 EE F2 F2 | A2 G2 ^F4 | G2 ^FG A2 =F2 | (GDG)F F4 |[M:2/2] D2 B,C D2 F2 | F2 E2 F4 | %6
 F2 GA F3 A- | A G2 ^F G8 |] %8
V:3
 B,2 CC B,2 B,2 | A,2 D2 D4 | D2 DD F2 B,2 | G, B,2 A, B,4 | %4
[M:2/2]"^2. Er läßt verkündigen sein Heil, dran alle Völker haben teil,\nder Herr macht seine G'rechtigkeit der Welt bekannt zu aller Zeit.\n\n4. Jauchze dem Herren alle Welt, zu seinem Ruhm und Lob bestellt,\nsingt und lobt ihn mit frohem Mut, mit Harfenspiel und Psalmen gut.\n\n5. Mit Pauken und Drometenschall jauchzet dem Herren überall,\ndem Kön'g der Ehrn zu aller Frist, das Meer braust und was drinnen ist.\n\n6. Der Erdboden erzeig ihm Ehr, und die drauf wohnen noch viel mehr,\ndie Wasserströme solin sich freun und alle Berge fröhlich sein.\n\n7. Alles geschehe vor dem Herrn, er kömmt und hält Gericht auf Erd'n,\ner richtet mit Gerechtigkeit und Recht die Völker weit und breit." B,2 DC B,2 A,2 | %5
 D2 (CB,) C4 | D2 DF D2 A,2 | D2 D2 D8 |] %8
V:4
 G,,2 C,C, B,,2 B,,2 | F,2 G,2 D,4 | G,2 D,G, F,2 B,2 | (_E,G,E,)F, B,,4 | %4
[M:2/2] B,2 B,A, G,2 F,2 | G,2 G,2 F,4 | B,2 G,F, B,2 F,2 | G,2 D,2 G,8 |] %8

